contributed-vectors/alice.svg

<svg xmlns="http://www.w3.org/2000/svg" xml:space="preserve" style="fill-rule:evenodd;clip-rule:evenodd;stroke-linejoin:round;stroke-miterlimit:2" viewBox="0 0 192 192"><circle cx="88" cy="88" r="88" style="fill:#bd9aff" transform="translate(8 8)"/><path d="M84.316 54.249c1.07-.936 7.347-5.458 10.999-5.481.129-.003.258-.002.385.003.126-.005.255-.006.385-.003l.065.001c.08-.001.161-.002.241-.001 4.155.018 6.884 1.953 10.982 5.245 6.355 5.106 13.527 13.355 19.877 23.811 7.476 12.313 12.062 24.294 12.829 32.654.409 4.454.429 7.996-1.497 11.366a13.222 13.222 0 0 1-2.764 3.384c-1.375 1.377-2.87 2.075-4.856 3.09-7.4 3.785-20.48 6.436-36.251 6.361-12.632-.06-22.791-1.694-31.995-5.569-4.553-1.917-8.139-4.96-9.57-7.678-1.034-1.963-1.486-6.537-1.423-7.263-.348-8.246 4.349-22.044 12.874-36.084a123.643 123.643 0 0 1 5.655-8.509c5.258-7.539 13.251-14.615 14.064-15.327Z" style="fill:#fdfbff"/></svg>

<?xml version="1.0" encoding="UTF-8" standalone="no"?>
<!DOCTYPE svg PUBLIC "-//W3C//DTD SVG 1.1//EN" "http://www.w3.org/Graphics/SVG/1.1/DTD/svg11.dtd">
<svg width="100%" height="100%" viewBox="0 0 192 192" version="1.1" xmlns="http://www.w3.org/2000/svg" xmlns:xlink="http://www.w3.org/1999/xlink" xml:space="preserve" xmlns:serif="http://www.serif.com/" style="fill-rule:evenodd;clip-rule:evenodd;stroke-linejoin:round;stroke-miterlimit:2;">
    <g id="Layer2">
        <g transform="matrix(1,0,0,1,8,8)">
            <circle cx="88" cy="88" r="88" style="fill:rgb(189,154,255);"/>
        </g>
        <path d="M84.316,54.249C85.386,53.313 91.663,48.791 95.315,48.768C95.444,48.765 95.573,48.766 95.7,48.771C95.826,48.766 95.955,48.765 96.085,48.768L96.15,48.769C96.23,48.768 96.311,48.767 96.391,48.768C100.546,48.786 103.275,50.721 107.373,54.013C113.728,59.119 120.9,67.368 127.25,77.824C134.726,90.137 139.312,102.118 140.079,110.478C140.488,114.932 140.508,118.474 138.582,121.844C137.843,123.137 136.905,124.275 135.818,125.228C134.443,126.605 132.948,127.303 130.962,128.318C123.562,132.103 110.482,134.754 94.711,134.679C82.079,134.619 71.92,132.985 62.716,129.11C58.163,127.193 54.577,124.15 53.146,121.432C52.112,119.469 51.66,114.895 51.723,114.169C51.375,105.923 56.072,92.125 64.597,78.085C66.425,75.076 68.324,72.227 70.252,69.576C75.51,62.037 83.503,54.961 84.316,54.249Z" style="fill:rgb(253,251,255);"/>
    </g>
</svg>
